symbols/web/offline_share/materialsymbolsrounded/offline_share_gradN25_20px.svg

<svg xmlns="http://www.w3.org/2000/svg" height="20" width="20"><path d="M8.521 15.604q-.688 0-1.167-.479-.479-.479-.479-1.167V2.792q0-.688.479-1.167.479-.479 1.167-.479h6.25q.687 0 1.166.479.48.479.48 1.167v11.166q0 .688-.48 1.167-.479.479-1.166.479Zm6.25-10.25h-6.25v6.063h6.25Zm-6.25-1.646h6.25v-.916h-6.25Zm6.25 9.354h-6.25v.896h6.25Zm-9.542 5.834q-.687 0-1.167-.479-.479-.479-.479-1.167V5.083q0-.312.25-.562.25-.25.584-.25.312 0 .562.25.25.25.25.562V17.25h6.979q.313 0 .563.25.25.25.25.562 0 .334-.25.584-.25.25-.563.25Zm4.875-8.667q-.25 0-.448-.198t-.198-.448V8.438q0-.313.25-.563.25-.25.563-.25h1.708l-.083-.083q-.167-.188-.167-.448 0-.261.188-.427.187-.188.448-.188.26 0 .427.188l.979.958q.104.125.177.281.073.156.073.323 0 .146-.073.302-.073.157-.177.261l-1 1q-.188.166-.438.166t-.437-.166q-.167-.188-.167-.438t.167-.437l.083-.084h-1.271v.771q0 .271-.177.448t-.427.177ZM8.521 2.792v.916-.916Zm0 10.27v.896Z"/></svg>

<svg xmlns="http://www.w3.org/2000/svg" height="20" width="20"><path d="M8.521 15.604Q7.833 15.604 7.354 15.125Q6.875 14.646 6.875 13.958V2.792Q6.875 2.104 7.354 1.625Q7.833 1.146 8.521 1.146H14.771Q15.458 1.146 15.937 1.625Q16.417 2.104 16.417 2.792V13.958Q16.417 14.646 15.937 15.125Q15.458 15.604 14.771 15.604ZM14.771 5.354H8.521V11.417H14.771ZM8.521 3.708H14.771V2.792Q14.771 2.792 14.771 2.792Q14.771 2.792 14.771 2.792H8.521Q8.521 2.792 8.521 2.792Q8.521 2.792 8.521 2.792ZM14.771 13.062H8.521V13.958Q8.521 13.958 8.521 13.958Q8.521 13.958 8.521 13.958H14.771Q14.771 13.958 14.771 13.958Q14.771 13.958 14.771 13.958ZM5.229 18.896Q4.542 18.896 4.062 18.417Q3.583 17.938 3.583 17.25V5.083Q3.583 4.771 3.833 4.521Q4.083 4.271 4.417 4.271Q4.729 4.271 4.979 4.521Q5.229 4.771 5.229 5.083V17.25Q5.229 17.25 5.229 17.25Q5.229 17.25 5.229 17.25H12.208Q12.521 17.25 12.771 17.5Q13.021 17.75 13.021 18.062Q13.021 18.396 12.771 18.646Q12.521 18.896 12.208 18.896ZM10.104 10.229Q9.854 10.229 9.656 10.031Q9.458 9.833 9.458 9.583V8.438Q9.458 8.125 9.708 7.875Q9.958 7.625 10.271 7.625H11.979L11.896 7.542Q11.729 7.354 11.729 7.094Q11.729 6.833 11.917 6.667Q12.104 6.479 12.365 6.479Q12.625 6.479 12.792 6.667L13.771 7.625Q13.875 7.75 13.948 7.906Q14.021 8.062 14.021 8.229Q14.021 8.375 13.948 8.531Q13.875 8.688 13.771 8.792L12.771 9.792Q12.583 9.958 12.333 9.958Q12.083 9.958 11.896 9.792Q11.729 9.604 11.729 9.354Q11.729 9.104 11.896 8.917L11.979 8.833H10.708V9.604Q10.708 9.875 10.531 10.052Q10.354 10.229 10.104 10.229ZM8.521 2.792Q8.521 2.792 8.521 2.792Q8.521 2.792 8.521 2.792V3.708V2.792Q8.521 2.792 8.521 2.792Q8.521 2.792 8.521 2.792ZM8.521 13.062V13.958Q8.521 13.958 8.521 13.958Q8.521 13.958 8.521 13.958Q8.521 13.958 8.521 13.958Q8.521 13.958 8.521 13.958Z"/></svg>
